X: 1
T: Give 'er The Peak Of The Mainsail
R: jig
M: 6/8
L: 1/8
K: Dmaj
|:d3 c3|B3 A3|B2B Bcd|A2F F2A|
B2E EEE|B2c dcB|AFD EFE|1 D3 D2A:|2 D3 D2E||
|:FAA ABA|B2c dcB|A2F FED|E2F GFE|
F2A AFA|B2c dcB|AFD EFE|1 D3 D2E:|2 D3 D2A||

